packages/elvis-assets-icons/icons/svg/src/powermeter_ams.svg

<svg width="24" height="24" viewBox="0 0 24 24" fill="none" xmlns="http://www.w3.org/2000/svg">
<path fill-rule="evenodd" clip-rule="evenodd" d="M9.46409 19.9751C11.1547 19.9751 12.4475 18.6805 12.4475 16.9876C12.4475 15.2946 11.1547 14 9.46409 14C7.77348 14 6.48066 15.2946 6.48066 16.9876C6.48066 18.6805 7.87293 19.9751 9.46409 19.9751ZM9.46409 15.4938C10.2597 15.4938 10.9558 16.1909 10.9558 16.9876C10.9558 17.7842 10.2597 18.4813 9.46409 18.4813C8.66851 18.4813 7.97238 17.7842 7.97238 16.9876C7.97238 16.1909 8.66851 15.4938 9.46409 15.4938Z" fill="black"/>
<path d="M17.3205 15.0954C17.3205 15.6929 16.8232 16.1909 16.2265 16.1909C15.6298 16.1909 15.1326 15.6929 15.1326 15.0954C15.1326 14.4979 15.6298 14 16.2265 14C16.8232 14 17.3205 14.4979 17.3205 15.0954Z" fill="black"/>
<path d="M16.2265 19.9752C16.8307 19.9752 17.3205 19.4847 17.3205 18.8797C17.3205 18.2747 16.8307 17.7843 16.2265 17.7843C15.6224 17.7843 15.1326 18.2747 15.1326 18.8797C15.1326 19.4847 15.6224 19.9752 16.2265 19.9752Z" fill="black"/>
<path fill-rule="evenodd" clip-rule="evenodd" d="M19.1105 0H4.79006C3.79558 0 3 0.796681 3 1.79253V22.2075C3 23.2033 3.79558 24 4.79006 24H19C19.9945 24 21 23.2033 21 22.2075V1.79253C20.9006 0.796681 20.105 0 19.1105 0ZM19.5 21.5C19.5 21.5996 19.5 22.5 18.4521 22.5H5.5C4.5 22.5 4.5 21.5996 4.5 21.5L4.49171 11.9598H19.5V21.5ZM19.5 10.6154H4.49171L4.5 1.5H12H19.5V10.6154ZM19.5 1.5H12H4.5V2.5C4.5 2.40042 4.5 1.5 5.5 1.5H18.5C18.5994 1.5 19.5 1.5 19.5 2.5V1.5Z" fill="black"/>
<path d="M10.5518 4H13.6552V9H10.5518V8.08163H12.7242V6.85714H10.5518V5.93878H12.7242V4.91837H10.5518V4Z" fill="black"/>
<path d="M9.10345 8.08163H6.93104V6.85714H9.10345V4H6V4.91837H8.17242V5.93878H6V9H9.10345V8.08163Z" fill="black"/>
<path d="M16.0345 5.93878H18V9H15.1034V8.08163H17.069V6.85714H15.1034V4H18V4.91837H16.0345V5.93878Z" fill="black"/>
<path d="M10.5518 4H13.6552V9H10.5518V8.08163H12.7242V6.85714H10.5518V5.93878H12.7242V4.91837H10.5518V4Z" fill="black"/>
<path d="M9.10345 8.08163H6.93104V6.85714H9.10345V4H6V4.91837H8.17242V5.93878H6V9H9.10345V8.08163Z" fill="black"/>
<path d="M16.0345 5.93878H18V9H15.1034V8.08163H17.069V6.85714H15.1034V4H18V4.91837H16.0345V5.93878Z" fill="black"/>
</svg>

<svg width="24" height="24" fill="none" xmlns="http://www.w3.org/2000/svg"><path fill-rule="evenodd" clip-rule="evenodd" d="M9.464 19.975c1.69 0 2.983-1.295 2.983-2.987 0-1.693-1.292-2.988-2.983-2.988-1.69 0-2.983 1.295-2.983 2.988 0 1.692 1.392 2.987 2.983 2.987zm0-4.481c.796 0 1.492.697 1.492 1.494 0 .796-.696 1.493-1.492 1.493-.795 0-1.492-.697-1.492-1.493 0-.797.697-1.494 1.492-1.494z" fill="#000"/><path d="M17.32 15.095c0 .598-.497 1.096-1.093 1.096a1.104 1.104 0 01-1.094-1.096c0-.597.497-1.095 1.094-1.095.596 0 1.093.498 1.093 1.095zM16.227 19.975a1.095 1.095 0 10-.002-2.19 1.095 1.095 0 00.002 2.19z" fill="#000"/><path fill-rule="evenodd" clip-rule="evenodd" d="M19.11 0H4.79C3.796 0 3 .797 3 1.793v20.415C3 23.203 3.796 24 4.79 24H19c.994 0 2-.797 2-1.793V1.793C20.9.797 20.105 0 19.11 0zm.39 21.5c0 .1 0 1-1.048 1H5.5c-1 0-1-.9-1-1l-.008-9.54H19.5v9.54zm0-10.885H4.492L4.5 1.5h15v9.115zm0-9.115h-15v1c0-.1 0-1 1-1h13c.1 0 1 0 1 1v-1z" fill="#000"/><path d="M10.552 4h3.103v5h-3.103v-.918h2.172V6.857h-2.172V5.94h2.172v-1.02h-2.172V4zM9.103 8.082H6.931V6.857h2.172V4H6v.918h2.172v1.02H6V9h3.103v-.918zM16.035 5.939H18V9h-2.897v-.918h1.966V6.857h-1.966V4H18v.918h-1.965v1.02z" fill="#000"/><path d="M10.552 4h3.103v5h-3.103v-.918h2.172V6.857h-2.172V5.94h2.172v-1.02h-2.172V4zM9.103 8.082H6.931V6.857h2.172V4H6v.918h2.172v1.02H6V9h3.103v-.918zM16.035 5.939H18V9h-2.897v-.918h1.966V6.857h-1.966V4H18v.918h-1.965v1.02z" fill="#000"/></svg>
